X: 17637
T: Hole In The Hedge, The
R: jig
M: 6/8
K: Gmajor
|:d/c/|BAB G2 E|DB,D G2 A|BAB GFG|AGA cBA|
BAB G2 E|DB,D G2 A|BAB GFG|AGF G2:|
|:B/c/|d3 BGB|dBd edB|cBc AFA|cBc ABc|
d3 BGB|dBd edc|BAG Adc|BGF G2:|

